X:258
T:Royne des flours (Chanson 19)
S:from bay19.MID
C:Manuscript de Bayeux (fin XVe)
R:Chanson
M:4/4
L:1/8
Q:1/4=92
K:G 
V:1
A4 c2 BA | B4 d4 | f2 ff2<g2g | g3e2<e2d | 
cB/2A/2 G2 A4 | e4 f2 ff | g3f/2g/2 a3a | a3g fe/2d/2 e2 | 
d8 | a4 g2 fa | e3d/2c/2 B2zA | A2 B2 c2 e2 | 
B2 BB c2 c2 | B4 d4 | f2 ff2<g2g | g3f2<e2d | 
cB/2A/2 B2 A2zc | A2 c2 B4 |]
V:2
A,4 C4 | B,4 D,4 | F,4 G,4 | G,4 E,4 | 
C,2 G,2 A,4 | E,4 F,4 | G,4 A,4 | A,4 F,2 E,2 | 
D,8 | A,4 G,4 | E,4 B,2z2 | A,2 B,2 C2 E,2 | 
B,4 C4 | B,4 D,4 | F,4 G,4 | G,4 E,4 | 
C2 B,2 A,2z2 | A,2 C2 B,4 |]





